X:240
T: WAS FRAG ICH VIEL NACH GELD UND GUT
N: B0289
O: Europa, Mitteleuropa, Deutschland
R: Stimmungs - Lied, Freude, Zufriedenheit
M: 4/4
L: 1/8
K: F
C2 | F3Ac2A2 | G3BA2
f2 | e2d2c2=B2 | c4z2
C2 | F3Ac2A2 | G3BA2
f2 | e2d2c2=B2 | c4z2
c2 | c3dB2B2 | B3cA2
F2 | B4A4 | d6cB | A4G4 | F4z2

